src/_assets/sidebar/treasurer-icon.svg

<svg width="24" height="24" viewBox="0 0 24 24" fill="none" xmlns="http://www.w3.org/2000/svg">
<path d="M3 14.3001C3 10.906 3 9.20893 4.05442 8.15451C5.10883 7.1001 6.80589 7.1001 10.2 7.1001H13.8C17.1941 7.1001 18.8912 7.1001 19.9456 8.15451C21 9.20893 21 10.906 21 14.3001C21 17.6942 21 19.3913 19.9456 20.4457C18.8912 21.5001 17.1941 21.5001 13.8 21.5001H10.2C6.80589 21.5001 5.10883 21.5001 4.05442 20.4457C3 19.3913 3 17.6942 3 14.3001Z" stroke="#485F7D" stroke-width="1.5"/>
<path d="M15.6004 7.1C15.6004 5.40294 15.6004 4.55442 15.0732 4.02721C14.546 3.5 13.6974 3.5 12.0004 3.5C10.3033 3.5 9.45481 3.5 8.9276 4.02721C8.40039 4.55442 8.40039 5.40294 8.40039 7.1" stroke="#485F7D" stroke-width="1.5"/>
<path d="M11.9992 17.3C12.9933 17.3 13.7992 16.6284 13.7992 15.8C13.7992 14.9715 12.9933 14.3 11.9992 14.3C11.0051 14.3 10.1992 13.6284 10.1992 12.8C10.1992 11.9715 11.0051 11.3 11.9992 11.3M11.9992 17.3C11.0051 17.3 10.1992 16.6284 10.1992 15.8M11.9992 17.3V17.9M11.9992 10.7V11.3M11.9992 11.3C12.9933 11.3 13.7992 11.9715 13.7992 12.8" stroke="#485F7D" stroke-width="1.5" stroke-linecap="round"/>
</svg>

<svg xmlns="http://www.w3.org/2000/svg" width="24" height="24" fill="none"><path stroke="#485F7D" stroke-width="1.5" d="M3 14.3c0-3.394 0-5.091 1.054-6.145C5.11 7.1 6.806 7.1 10.2 7.1h3.6c3.394 0 5.091 0 6.146 1.055S21 10.906 21 14.3s0 5.091-1.054 6.146S17.194 21.5 13.8 21.5h-3.6c-3.394 0-5.091 0-6.146-1.054S3 17.694 3 14.3ZM15.6 7.1c0-1.697 0-2.546-.527-3.073S13.697 3.5 12 3.5s-2.545 0-3.072.527S8.4 5.403 8.4 7.1"/><path stroke="#485F7D" stroke-linecap="round" stroke-width="1.5" d="M12 17.3c.993 0 1.8-.672 1.8-1.5s-.807-1.5-1.8-1.5c-.995 0-1.8-.672-1.8-1.5s.805-1.5 1.8-1.5m0 6c-.995 0-1.8-.672-1.8-1.5m1.8 1.5v.6m0-7.2v.6m0 0c.993 0 1.8.672 1.8 1.5"/></svg>
